src/assets/font-icons/backspace.svg

<svg xmlns="http://www.w3.org/2000/svg" width="768" height="768" fill="none"><path fill="#000" d="M314.784 282.787c-11.715 11.714-11.715 30.709 0 42.425l58.787 58.786-58.787 58.787c-11.715 11.715-11.715 30.709 0 42.426s30.71 11.716 42.427 0l58.786-58.786 58.787 58.786c11.716 11.716 30.709 11.716 42.426 0s11.716-30.711 0-42.426l-58.786-58.787 58.786-58.786c11.716-11.716 11.716-30.711 0-42.427s-30.709-11.716-42.426 0l-58.787 58.787-58.786-58.787c-11.716-11.716-30.709-11.714-42.427.002m266.574-120.354c32.638 4.272 50.465 12.182 63.196 24.576 12.614 12.268 20.577 29.269 24.912 60.648 4.467 32.325 4.533 75.135 4.533 136.341s-.067 104.016-4.533 136.343c-4.335 31.379-12.307 48.39-24.921 60.658-12.731 12.394-30.549 20.295-63.184 24.567C547.945 609.94 503.768 610 440.959 610h-84.416c-36.181 0-61.289-.03-81.117-1.874-19.22-1.789-31.209-5.13-41.275-10.557-10.059-5.43-19.24-13.482-30.889-28.267-12.062-15.309-25.351-35.938-44.553-65.837l-21.792-33.92c-16.229-25.265-27.118-42.292-34.19-56.369-6.76-13.451-8.73-21.773-8.73-29.176 0-7.404 1.97-15.727 8.73-29.178 7.073-14.076 17.973-31.117 34.202-56.385l21.754-33.912c.002-.002-.002.004 0 0 19.201-29.883 32.486-50.506 44.55-65.819 11.647-14.789 20.827-22.845 30.876-28.271 10.088-5.433 22.09-8.775 41.311-10.563 19.832-1.844 44.94-1.874 81.122-1.874h84.384c62.827 0 107.012.06 140.432 4.435m105.03-18.436c-25.794-25.104-58.246-35.952-97.244-41.056C551.375 98 503.254 98 443.092 98h-87.965c-34.431 0-62.33 0-85.264 2.133-23.851 2.218-44.552 6.891-64.22 17.487l-.021.011c-19.708 10.638-34.846 25.318-49.522 43.948-14.041 17.826-28.843 40.865-47.034 69.176l-23.45 36.551c-15.182 23.635-27.832 43.329-36.498 60.575C39.98 346.062 34 363.883 34 384.001s5.981 37.938 15.118 56.119c8.667 17.246 21.317 36.94 36.497 60.574L108.94 537c18.264 28.44 33.111 51.559 47.196 69.435 14.68 18.633 29.817 33.299 49.519 43.934 19.659 10.602 40.368 15.28 64.214 17.498 22.93 2.134 50.83 2.134 85.261 2.134h87.995c60.147 0 108.261 0 146.025-4.941 38.993-5.103 71.445-15.952 97.239-41.057 25.915-25.205 37.217-57.115 42.513-95.448C734 491.645 734 444.677 734 386.264v-4.526c0-58.413 0-105.381-5.098-142.291-5.296-38.333-16.598-70.243-42.513-95.448z"/></svg>

<svg width="768" height="768" viewBox="0 0 768 768" fill="none" xmlns="http://www.w3.org/2000/svg">
  <path d="M314.784 282.787C303.069 294.501 303.069 313.496 314.784 325.212L373.571 383.998L314.784 442.785C303.069 454.5 303.069 473.494 314.784 485.211C326.5 496.928 345.494 496.927 357.211 485.211L415.997 426.425L474.784 485.211C486.5 496.927 505.493 496.927 517.21 485.211C528.927 473.495 528.926 454.5 517.21 442.785L458.424 383.998L517.21 325.212C528.926 313.496 528.926 294.501 517.21 282.785C505.494 271.069 486.501 271.069 474.784 282.785L415.997 341.572L357.211 282.785C345.495 271.069 326.502 271.071 314.784 282.787ZM581.358 162.433C613.996 166.705 631.823 174.615 644.554 187.009C657.168 199.277 665.131 216.278 669.466 247.657C673.933 279.982 673.999 322.792 673.999 383.998C673.999 445.205 673.932 488.014 669.466 520.341C665.131 551.72 657.159 568.731 644.545 580.999C631.814 593.393 613.996 601.294 581.361 605.566C547.945 609.94 503.768 610 440.959 610H356.543C320.362 610 295.254 609.97 275.426 608.126C256.206 606.337 244.217 602.996 234.151 597.569C224.092 592.139 214.911 584.087 203.262 569.302C191.2 553.993 177.911 533.364 158.709 503.465L136.917 469.545C136.918 469.545 136.916 469.544 136.917 469.545C120.688 444.28 109.799 427.253 102.727 413.176C95.9672 399.725 93.9965 391.403 93.9965 384C93.9965 376.596 95.9672 368.273 102.727 354.822C109.8 340.746 120.7 323.705 136.929 298.437L158.683 264.525C158.685 264.523 158.681 264.529 158.683 264.525C177.884 234.642 191.169 214.019 203.233 198.706C214.88 183.917 224.06 175.861 234.109 170.435C244.197 165.002 256.199 161.66 275.42 159.872C295.252 158.028 320.36 157.998 356.542 157.998H440.926C503.753 157.998 547.938 158.058 581.358 162.433ZM686.388 143.997C660.594 118.893 628.142 108.045 589.144 102.941C551.375 98 503.254 98 443.092 98H355.127C320.696 98 292.797 98 269.863 100.133C246.012 102.351 225.311 107.024 205.643 117.62L205.622 117.631C185.914 128.269 170.776 142.949 156.1 161.579C142.059 179.405 127.257 202.444 109.066 230.755L85.6164 267.306C70.4338 290.941 57.7839 310.635 49.1178 327.881C39.9814 346.062 34 363.883 34 384.001C34 404.118 39.9814 421.939 49.1178 440.12C57.785 457.366 70.4349 477.06 85.6153 500.694L108.94 537C127.204 565.44 142.051 588.559 156.136 606.435C170.816 625.068 185.953 639.734 205.655 650.369C225.314 660.971 246.023 665.649 269.869 667.867C292.799 670.001 320.699 670.001 355.13 670.001H443.125C503.272 670.001 551.386 670.001 589.15 665.06C628.143 659.957 660.595 649.108 686.389 624.003C712.304 598.798 723.606 566.888 728.902 528.555C734 491.645 734 444.677 734 386.264V381.738C734 323.325 734 276.357 728.902 239.447C723.606 201.114 712.304 169.204 686.389 143.999L686.388 143.997Z" fill="black"/>
</svg>
